img/star.svg

<svg fill="none" height="20" viewBox="0 0 20 20" width="20" xmlns="http://www.w3.org/2000/svg"><path d="m9.60502 1.91249c.03651-.07378.09293-.13589.16287-.17931.06995-.04342.15063-.06643.23291-.06643.0824 0 .1631.02301.233.06643s.1264.10553.1629.17931l1.925 3.89917c.1268.25664.314.47867.5455.64704s.5004.27805.7836.31963l4.3051.63c.0815.01182.1582.04622.2212.09933.063.0531.1099.12279.1354.20117s.0286.16233.0088.24236c-.0197.08002-.0614.15293-.1205.21047l-3.1133 3.03164c-.2053.2001-.3589.4471-.4476.7197s-.1098.5627-.0616.8453l.735 4.2834c.0144.0815.0056.1654-.0254.2422s-.0829.1433-.1499.1919c-.067.0487-.1463.0775-.2289.0833-.0826.0057-.1652-.0119-.2383-.0508l-3.8483-2.0233c-.2536-.1332-.5357-.2027-.8221-.2027-.28637 0-.56848.0695-.82205.2027l-3.8475 2.0233c-.07306.0387-.1555.0561-.23796.0502-.08245-.0058-.16161-.0347-.22846-.0833s-.11872-.1151-.1497-.1917-.03983-.1604-.02555-.2418l.73417-4.2825c.0485-.2828.02749-.573-.06122-.8458-.0887-.2728-.24244-.5199-.44795-.7201l-3.11333-3.03081c-.05951-.05747-.10167-.1305-.1217-.21077-.02002-.08027-.0171-.16455.00843-.24323.02554-.07869.07266-.14863.136-.20184.06334-.05322.14035-.08758.22227-.09916l4.30417-.62916c.28354-.04125.55282-.15079.78465-.31918s.41927-.3906.54618-.64749z" fill="#fdc700"/></svg>

<svg width="20" height="20" viewBox="0 0 20 20" fill="none" xmlns="http://www.w3.org/2000/svg">
<path d="M9.60502 1.91249C9.64153 1.83871 9.69795 1.7766 9.76789 1.73318C9.83784 1.68976 9.91852 1.66675 10.0008 1.66675C10.0832 1.66675 10.1639 1.68976 10.2338 1.73318C10.3037 1.7766 10.3602 1.83871 10.3967 1.91249L12.3217 5.81166C12.4485 6.0683 12.6357 6.29033 12.8672 6.4587C13.0987 6.62707 13.3676 6.73675 13.6508 6.77833L17.9559 7.40833C18.0374 7.42015 18.1141 7.45455 18.1771 7.50766C18.2401 7.56076 18.287 7.63045 18.3125 7.70883C18.338 7.78721 18.3411 7.87116 18.3213 7.95119C18.3016 8.03121 18.2599 8.10412 18.2008 8.16166L15.0875 11.1933C14.8822 11.3934 14.7286 11.6404 14.6399 11.913C14.5512 12.1856 14.5301 12.4757 14.5783 12.7583L15.3133 17.0417C15.3277 17.1232 15.3189 17.2071 15.2879 17.2839C15.2569 17.3607 15.205 17.4272 15.138 17.4758C15.071 17.5245 14.9917 17.5533 14.9091 17.5591C14.8265 17.5648 14.7439 17.5472 14.6708 17.5083L10.8225 15.485C10.5689 15.3518 10.2868 15.2823 10.0004 15.2823C9.71403 15.2823 9.43192 15.3518 9.17835 15.485L5.33085 17.5083C5.25779 17.547 5.17535 17.5644 5.09289 17.5585C5.01044 17.5527 4.93128 17.5238 4.86443 17.4752C4.79758 17.4266 4.74571 17.3601 4.71473 17.2835C4.68375 17.2069 4.6749 17.1231 4.68918 17.0417L5.42335 12.7592C5.47185 12.4764 5.45084 12.1862 5.36213 11.9134C5.27343 11.6406 5.11969 11.3935 4.91418 11.1933L1.80085 8.16249C1.74134 8.10502 1.69918 8.03199 1.67915 7.95172C1.65913 7.87145 1.66205 7.78717 1.68758 7.70849C1.71312 7.6298 1.76024 7.55986 1.82358 7.50665C1.88692 7.45343 1.96393 7.41907 2.04585 7.40749L6.35002 6.77833C6.63356 6.73708 6.90284 6.62754 7.13467 6.45915C7.3665 6.29076 7.55394 6.06855 7.68085 5.81166L9.60502 1.91249Z" fill="#FDC700"/>
</svg>
